Flat-Remix-Dark/apps/scalable/google-chrome-beta.svg

<svg xmlns="http://www.w3.org/2000/svg" xmlns:xlink="http://www.w3.org/1999/xlink" width="384pt" height="384pt" version="1.1" viewBox="0 0 384 384">
 <defs>
  <clipPath id="clip1">
   <path d="M 23 23 L 361 23 L 361 361 L 23 361 Z M 23 23"/>
  </clipPath>
  <clipPath id="clip2">
   <path d="M 192 23.25 C 98.800781 23.25 23.25 98.800781 23.25 192 C 23.25 285.199219 98.800781 360.75 192 360.75 C 285.199219 360.75 360.75 285.199219 360.75 192 C 360.75 98.800781 285.199219 23.25 192 23.25 Z M 192 112.8125 C 235.734375 112.8125 271.1875 148.265625 271.1875 192 C 271.1875 235.734375 235.734375 271.1875 192 271.1875 C 148.265625 271.1875 112.8125 235.734375 112.8125 192 C 112.8125 148.265625 148.265625 112.8125 192 112.8125 Z M 192 112.8125"/>
  </clipPath>
  <filter id="alpha" width="100%" height="100%" x="0%" y="0%" filterUnits="objectBoundingBox">
   <feColorMatrix in="SourceGraphic" type="matrix" values="0 0 0 0 1 0 0 0 0 1 0 0 0 0 1 0 0 0 1 0"/>
  </filter>
  <mask id="mask0">
   <g filter="url(#alpha)">
    <rect width="384" height="384" x="0" y="0" style="fill:rgb(0%,0%,0%);fill-opacity:0.101961"/>
   </g>
  </mask>
  <clipPath id="clip3">
   <rect width="384" height="384" x="0" y="0"/>
  </clipPath>
  <g id="surface5" clip-path="url(#clip3)">
   <path style="fill:rgb(0%,0%,0%)" d="M 48.277344 103.335938 L 114.386719 206.988281 L 139.835938 173.496094 Z M 341.550781 113.714844 L 204.730469 113.792969 L 219.777344 152.945312 Z M 209.949219 235.839844 L 183.488281 360.554688 L 251.199219 244.59375 Z M 209.949219 235.839844"/>
  </g>
 </defs>
 <g>
  <path style="fill:rgb(100%,78.431373%,19.215686%)" d="M 341.539062 113.753906 C 105.179688 302.585938 223.359375 208.167969 341.539062 113.753906 Z M 341.539062 113.753906 L 204.917969 113.808594 C 242.539062 119.976562 271.246094 152.632812 271.246094 192 C 271.21875 211.359375 264.105469 230.039062 251.246094 244.515625 L 183.492188 360.539062 C 186.308594 360.675781 189.148438 360.75 192 360.75 C 285.199219 360.75 360.75 285.199219 360.75 192 C 360.75 163.757812 353.800781 137.144531 341.539062 113.753906 Z M 341.539062 113.753906"/>
  <path style="fill:rgb(83.137255%,10.196078%,10.196078%)" d="M 192 23.25 C 131.332031 23.25 78.148438 55.273438 48.40625 103.332031 L 114.257812 207.039062 C 114.5625 211.972656 112.757812 192.355469 112.753906 192 C 112.753906 148.234375 148.234375 112.753906 192 112.753906 C 196.109375 112.789062 200.210938 113.140625 204.261719 113.808594 L 341.539062 113.753906 C 313.332031 59.957031 256.957031 23.25 192 23.25 Z M 48.386719 103.363281 C 7.460938 299.121094 27.925781 201.242188 48.386719 103.363281 Z M 48.386719 103.363281"/>
  <path style="fill:rgb(5.882353%,63.137255%,37.254902%)" d="M 48.40625 103.332031 C 32.460938 129.097656 23.25 159.472656 23.25 192 C 23.25 282.34375 94.246094 356.105469 183.492188 360.539062 L 251.246094 244.515625 C 236.226562 261.488281 214.664062 271.21875 192 271.246094 C 154.054688 271.214844 121.460938 244.292969 114.257812 207.039062 Z M 48.40625 103.332031"/>
  <path style="fill:rgb(100%,100%,100%)" d="M 271.246094 192 C 271.246094 235.765625 235.765625 271.246094 192 271.246094 C 148.234375 271.246094 112.753906 235.765625 112.753906 192 C 112.753906 148.234375 148.234375 112.753906 192 112.753906 C 235.765625 112.753906 271.246094 148.234375 271.246094 192 Z M 271.246094 192"/>
  <path style="fill:rgb(21.176471%,48.235294%,94.117647%)" d="M 257.390625 192 C 257.390625 228.113281 228.113281 257.390625 192 257.390625 C 155.886719 257.390625 126.609375 228.113281 126.609375 192 C 126.609375 155.886719 155.886719 126.609375 192 126.609375 C 228.113281 126.609375 257.390625 155.886719 257.390625 192 Z M 257.390625 192"/>
  <g clip-path="url(#clip1)">
   <g clip-path="url(#clip2)">
    <use mask="url(#mask0)" xlink:href="#surface5"/>
   </g>
  </g>
  <path style="fill:rgb(24.313725%,24.313725%,25.098039%)" d="M 324.570312 296.300781 C 325.015625 295.570312 328.019531 291.464844 331.238281 287.179688 C 334.457031 282.894531 337.089844 278.617188 337.089844 277.675781 C 337.089844 276.101562 333.167969 275.960938 289.410156 275.960938 C 263.183594 275.960938 241.507812 276.183594 241.238281 276.457031 C 240.449219 277.257812 138.921875 278.269531 135.519531 277.511719 L 132.429688 276.824219 L 132.695312 229.921875 L 132.960938 183.023438 L 246.742188 182.796875 L 360.527344 182.566406 L 360.265625 230.039062 C 360.09375 260.839844 359.640625 277.5 358.980469 277.484375 C 358.421875 277.472656 350.648438 282 341.707031 287.546875 C 325.582031 297.550781 323 298.871094 324.570312 296.300781 Z M 324.570312 296.300781"/>
  <path style="fill:rgb(100%,100%,100%)" d="M 192.5625 254.710938 C 194.496094 253.566406 197.109375 251.078125 198.371094 249.179688 C 202.136719 243.515625 201.058594 233.710938 196.222656 229.640625 C 194.894531 228.523438 195.027344 227.882812 197.265625 224.558594 C 201.800781 217.828125 199.246094 208.910156 191.457031 204.289062 C 188.753906 202.683594 185.578125 202.183594 175.867188 201.832031 C 164.945312 201.4375 163.527344 201.589844 162.3125 203.273438 C 161.273438 204.710938 160.957031 210.882812 160.957031 229.648438 C 160.957031 251.246094 161.160156 254.347656 162.675781 255.882812 C 165.296875 258.542969 187.566406 257.667969 192.5625 254.710938 Z M 192.5625 254.710938"/>
  <path style="fill:rgb(24.313725%,24.313725%,25.098039%)" d="M 173.9375 246.484375 C 173.519531 246.046875 173.175781 242.980469 173.175781 239.671875 L 173.175781 233.652344 L 178.546875 233.652344 C 185.449219 233.652344 188.445312 235.664062 188.445312 240.289062 C 188.445312 242.175781 187.792969 244.269531 186.988281 244.945312 C 185.246094 246.410156 175.027344 247.617188 173.9375 246.484375 Z M 173.9375 246.484375"/>
  <path style="fill:rgb(24.313725%,24.313725%,25.098039%)" d="M 173.175781 218.171875 L 173.175781 213.011719 L 179.082031 213.011719 C 185.425781 213.011719 187.429688 214.15625 187.429688 217.789062 C 187.429688 221.648438 184.78125 223.332031 178.703125 223.332031 L 173.175781 223.332031 Z M 173.175781 218.171875"/>
  <path style="fill:rgb(100%,100%,100%)" d="M 240.167969 256.722656 C 242.203125 256.167969 242.472656 255.527344 242.203125 251.835938 L 241.898438 247.582031 L 230.191406 247.066406 L 218.480469 246.550781 L 218.480469 234.167969 L 228.117188 233.867188 C 238.296875 233.550781 239.308594 233.0625 239.335938 228.4375 C 239.363281 224.0625 237.660156 223.332031 227.441406 223.332031 L 217.972656 223.332031 L 217.972656 213.011719 L 228.21875 213.011719 C 240.296875 213.011719 242.40625 212.191406 242.40625 207.503906 C 242.40625 201.941406 241.511719 201.660156 223.914062 201.660156 C 208.832031 201.660156 207.796875 201.785156 206.757812 203.753906 C 206.023438 205.140625 205.753906 214.199219 205.957031 230.625 C 206.214844 251.289062 206.515625 255.5625 207.792969 256.378906 C 209.472656 257.453125 236.421875 257.738281 240.167969 256.722656 Z M 240.167969 256.722656"/>
  <path style="fill:rgb(100%,100%,100%)" d="M 269.964844 256.316406 C 271.8125 255.316406 271.933594 253.953125 271.933594 234.128906 L 271.933594 213.011719 L 277.277344 212.996094 C 280.21875 212.988281 283.613281 212.714844 284.828125 212.382812 C 287.484375 211.660156 288.59375 207.941406 287.230469 204.3125 L 286.238281 201.660156 L 266.613281 201.675781 C 255.820312 201.683594 246.371094 202.089844 245.613281 202.574219 C 244.222656 203.46875 243.679688 210.515625 244.90625 211.757812 C 245.269531 212.128906 248.753906 212.617188 252.644531 212.839844 L 259.714844 213.246094 L 259.714844 234.230469 C 259.714844 253.132812 259.890625 255.324219 261.496094 256.273438 C 263.816406 257.640625 267.488281 257.660156 269.964844 256.316406 Z M 269.964844 256.316406"/>
  <path style="fill:rgb(100%,100%,100%)" d="M 292.25 256.378906 C 293.273438 255.824219 294.941406 253.019531 295.960938 250.148438 L 297.8125 244.929688 L 306.929688 245.226562 L 316.050781 245.519531 L 317.679688 250.46875 C 319.484375 255.9375 320.988281 257.347656 325.046875 257.371094 C 328.804688 257.390625 330.984375 256.402344 330.984375 254.671875 C 330.984375 252.214844 312.5 203.261719 311.265625 202.449219 C 309.332031 201.179688 303.726562 201.574219 302.234375 203.085938 C 301.460938 203.871094 296.574219 215.800781 291.375 229.601562 C 282.527344 253.082031 282.035156 254.777344 283.738281 256.039062 C 285.890625 257.632812 289.65625 257.785156 292.25 256.378906 Z M 292.25 256.378906"/>
  <path style="fill:rgb(24.313725%,24.313725%,25.098039%)" d="M 302.253906 234.113281 C 301.945312 233.800781 302.574219 231.132812 303.652344 228.179688 C 304.730469 225.230469 305.863281 222.117188 306.167969 221.265625 C 306.640625 219.960938 311.566406 231.382812 311.621094 233.910156 C 311.640625 234.792969 303.109375 234.980469 302.253906 234.113281 Z M 302.253906 234.113281"/>
 </g>
</svg>

<svg xmlns="http://www.w3.org/2000/svg" width="384pt" height="384pt" version="1.1" viewBox="0 0 384 384">
 <g transform="translate(0,-1e-5)">
  <g>
   <path d="m 341.53906,113.75391 c -236.35937,188.83203 -118.17969,94.41406 0,0 z m 0,0 -136.62109,0.0547 46.32812,130.70703 -67.7539,116.02344 c 2.8164,0.13672 5.65625,0.21094 8.50781,0.21094 93.19922,0 168.75,-75.55078 168.75,-168.75 0,-28.24219 -6.94922,-54.85547 -19.21094,-78.24609 z" style="fill:#ffc730"/>
   <path d="m 192,23.25 c -60.66797,0 -113.851562,32.023438 -143.59375,80.08203 L 116.44542,214.79514 192,112.75391 c 4.10937,0.0352 8.21094,0.38672 12.26172,1.05468 l 137.27734,-0.0547 C 313.33203,59.957031 256.95703,23.25 192,23.25 Z M 48.386719,103.36328 c -40.925781,195.75781 -20.460938,97.87891 0,0 z" style="fill:#d41919"/>
   <path d="M 48.40625,103.33203 C 32.460938,129.09766 23.25,159.47266 23.25,192 c 0,90.34375 70.996094,164.10547 160.24219,168.53906 l 67.7539,-116.02344 C 236.22656,261.48828 214.66406,271.21875 192,271.24609 l -75.55458,-56.45095 z" style="fill:#0ca15e"/>
  </g>
  <path d="M 341.55415,113.71483 230.072,149.55823 201.35217,113.79676 Z" style="opacity:0.3;fill-opacity:0.95295697"/>
  <path d="m 183.48828,360.55469 25.32008,-114.33246 45.36749,-6.74548 z" style="opacity:0.3;fill-opacity:0.95295697"/>
  <path d="M 48.277344,103.33594 136.9627,179.80768 121.40623,222.9552 Z" style="opacity:0.3;fill-opacity:0.95295697"/>
  <path style="fill:#ffffff" d="m 271.24609,192 c 0,43.76562 -35.48047,79.24609 -79.24609,79.24609 -43.76563,0 -79.24609,-35.48047 -79.24609,-79.24609 0,-43.76563 35.48046,-79.24609 79.24609,-79.24609 43.76562,0 79.24609,35.48046 79.24609,79.24609 z m 0,0"/>
  <path style="fill:#357af0" d="m 257.39062,192 c 0,36.11328 -29.27734,65.39062 -65.39062,65.39062 -36.11328,0 -65.39062,-29.27734 -65.39062,-65.39062 0,-36.11328 29.27734,-65.39062 65.39062,-65.39062 36.11328,0 65.39062,29.27734 65.39062,65.39062 z m 0,0"/>
 </g>
 <path style="fill:#3d3d3f" d="m 324.57031,296.30078 c 0.44531,-0.73047 3.44922,-4.83594 6.66797,-9.12109 3.21875,-4.28516 5.85156,-8.5625 5.85156,-9.50391 0,-1.57422 -3.92187,-1.71484 -47.67968,-1.71484 -26.22657,0 -47.90235,0.22265 -48.17188,0.49609 -0.78906,0.80078 -102.31641,1.8125 -105.71875,1.05469 l -3.08984,-0.6875 0.26562,-46.90235 0.26563,-46.89843 113.78125,-0.22657 113.78515,-0.23046 -0.26172,47.47265 c -0.17187,30.80078 -0.625,47.46094 -1.28515,47.44531 -0.5586,-0.0117 -8.33203,4.51563 -17.27344,10.0625 -16.125,10.00391 -18.70703,11.32422 -17.13672,8.75391 z m 0,0"/>
 <path style="fill:#ffffff" d="m 192.5625,254.71094 c 1.93359,-1.14453 4.54687,-3.63282 5.80859,-5.53125 3.76563,-5.66407 2.6875,-15.46875 -2.14843,-19.53907 -1.32813,-1.11718 -1.19532,-1.75781 1.04296,-5.08203 4.53516,-6.73047 1.98047,-15.64843 -5.80859,-20.26953 -2.70312,-1.60547 -5.87891,-2.10547 -15.58984,-2.45703 -10.92188,-0.39453 -12.33985,-0.24219 -13.55469,1.44141 -1.03906,1.4375 -1.35547,7.60937 -1.35547,26.375 0,21.59765 0.20313,24.69922 1.71875,26.23437 2.62109,2.66016 24.89063,1.78516 29.88672,-1.17187 z m 0,0"/>
 <path style="fill:#3d3d3f" d="m 173.9375,246.48437 c -0.41797,-0.4375 -0.76172,-3.5039 -0.76172,-6.8125 v -6.01953 h 5.37109 c 6.90235,0 9.89844,2.01172 9.89844,6.63672 0,1.88672 -0.65234,3.98047 -1.45703,4.65625 -1.74219,1.46485 -11.96094,2.67188 -13.05078,1.53906 z m 0,0"/>
 <path style="fill:#3d3d3f" d="m 173.17578,218.17187 v -5.16015 h 5.90625 c 6.34375,0 8.34766,1.14453 8.34766,4.77734 0,3.85938 -2.64844,5.54297 -8.72657,5.54297 h -5.52734 z m 0,0"/>
 <path style="fill:#ffffff" d="m 240.16797,256.72266 c 2.03515,-0.55469 2.30469,-1.19532 2.03515,-4.88672 l -0.30468,-4.25391 -11.70703,-0.51562 -11.71094,-0.51563 v -12.38281 l 9.63672,-0.30078 c 10.17968,-0.31641 11.1914,-0.80469 11.21875,-5.42969 0.0273,-4.375 -1.67578,-5.10547 -11.89453,-5.10547 h -9.46875 v -10.32031 h 10.24609 c 12.07812,0 14.1875,-0.82031 14.1875,-5.50781 0,-5.5625 -0.89453,-5.84375 -18.49219,-5.84375 -15.08203,0 -16.11719,0.125 -17.15625,2.09375 -0.73437,1.38671 -1.0039,10.44531 -0.80078,26.87109 0.25781,20.66406 0.55859,24.9375 1.83594,25.75391 1.67969,1.07421 28.6289,1.35937 32.375,0.34375 z m 0,0"/>
 <path style="fill:#ffffff" d="m 269.96484,256.31641 c 1.84766,-1 1.96875,-2.36329 1.96875,-22.1875 v -21.11719 l 5.34375,-0.0156 c 2.94141,-0.008 6.33594,-0.28125 7.55078,-0.61328 2.65625,-0.72265 3.76563,-4.4414 2.40235,-8.07031 l -0.99219,-2.65234 -19.625,0.0156 c -10.79297,0.008 -20.24219,0.41406 -21,0.89844 -1.39062,0.89453 -1.93359,7.9414 -0.70703,9.18359 0.36328,0.3711 3.84766,0.85938 7.73828,1.08203 l 7.07031,0.40625 v 20.98438 c 0,18.90234 0.17578,21.09375 1.78125,22.04297 2.32032,1.36718 5.99219,1.38672 8.46875,0.043 z m 0,0"/>
 <path style="fill:#ffffff" d="m 292.25,256.37891 c 1.02344,-0.55469 2.69141,-3.35938 3.71094,-6.23047 l 1.85156,-5.21875 9.11719,0.29687 9.12109,0.29297 1.62891,4.94922 c 1.80468,5.46875 3.30859,6.87891 7.36718,6.90234 3.75782,0.0195 5.9375,-0.96875 5.9375,-2.69922 0,-2.45703 -18.48437,-51.41015 -19.71875,-52.22265 -1.93359,-1.26953 -7.53906,-0.875 -9.03125,0.63672 -0.77343,0.78515 -5.66015,12.71484 -10.85937,26.51562 -8.84766,23.48047 -9.33984,25.17578 -7.63672,26.4375 2.15234,1.59375 5.91797,1.7461 8.51172,0.33985 z m 0,0"/>
 <path style="fill:#3d3d3f" d="m 302.25391,234.11328 c -0.3086,-0.3125 0.32031,-2.98047 1.39843,-5.93359 1.07813,-2.94922 2.21094,-6.0625 2.51563,-6.91407 0.47265,-1.30468 5.39844,10.11719 5.45312,12.64454 0.0195,0.88281 -8.51172,1.07031 -9.36718,0.20312 z m 0,0"/>
</svg>
